resources/icons/gear_wheel_pressed.svg

<svg height="40" viewBox="0 0 60 40" width="60" xmlns="http://www.w3.org/2000/svg"><g fill="none" fill-rule="evenodd" transform=""><rect fill="#141416" height="40" opacity=".6" rx="4" transform="matrix(-1 0 0 1 60 0)" width="60"/><path d="m20 18v4h2.26c.1823467.7209624.4686828 1.4115376.85 2.05l-1.6 1.6 2.83 2.83 1.6-1.6c.6419817.3813954 1.3358647.6677063 2.06.85v2.26h4v-2.26c.7241353-.1822937 1.4180183-.4686046 2.06-.85l1.6 1.6 2.83-2.83-1.6-1.6c.3771974-.640525.6632827-1.3304954.85-2.05h2.26v-4h-2.26c-.1866924-.7226751-.4727531-1.4159518-.85-2.06l1.6-1.6-2.83-2.83-1.6 1.6c-.6440482-.3772469-1.3373249-.6633076-2.06-.85v-2.26h-4v2.26c-.7226751.1866924-1.4159518.4727531-2.06.85l-1.6-1.6-2.83 2.83 1.6 1.6c-.3813954.6419817-.6677063 1.3358647-.85 2.06zm10-4c3.3137085 0 6 2.6862915 6 6s-2.6862915 6-6 6-6-2.6862915-6-6 2.6862915-6 6-6zm0 3c1.6568542 0 3 1.3431458 3 3s-1.3431458 3-3 3-3-1.3431458-3-3 1.3431458-3 3-3zm0 4c .5522847 0 1-.4477153 1-1s-.4477153-1-1-1-1 .4477153-1 1 .4477153 1 1 1z" fill="#fff"/></g></svg>

<?xml version="1.0" encoding="UTF-8" standalone="no"?>
<svg width="60px" height="40px" viewBox="0 0 60 40" version="1.1" xmlns="http://www.w3.org/2000/svg" xmlns:xlink="http://www.w3.org/1999/xlink">
    <!-- Generator: Sketch 39.1 (31720) - http://www.bohemiancoding.com/sketch -->
    <title>Group</title>
    <desc>Created with Sketch.</desc>
    <defs></defs>
    <g id="main" stroke="none" stroke-width="1" fill="none" fill-rule="evenodd">
        <g id="states-HD" transform="translate(-1600.000000, -140.000000)">
            <g id="Group" transform="translate(1600.000000, 140.000000)">
                <rect id="Rectangle_2_copy_129-2-Copy-2" fill="#141416" opacity="0.6" transform="translate(30.000000, 20.000000) scale(-1, 1) translate(-30.000000, -20.000000) " x="0" y="0" width="60" height="40" rx="4"></rect>
                <path d="M20,18 L20,22 L22.26,22 C22.4423467,22.7209624 22.7286828,23.4115376 23.11,24.05 L21.51,25.65 L24.34,28.48 L25.94,26.88 C26.5819817,27.2613954 27.2758647,27.5477063 28,27.73 L28,29.99 L32,29.99 L32,27.73 C32.7241353,27.5477063 33.4180183,27.2613954 34.06,26.88 L35.66,28.48 L38.49,25.65 L36.89,24.05 C37.2671974,23.409475 37.5532827,22.7195046 37.74,22 L40,22 L40,18 L37.74,18 C37.5533076,17.2773249 37.2672469,16.5840482 36.89,15.94 L38.49,14.34 L35.66,11.51 L34.06,13.11 C33.4159518,12.7327531 32.7226751,12.4466924 32,12.26 L32,10 L28,10 L28,12.26 C27.2773249,12.4466924 26.5840482,12.7327531 25.94,13.11 L24.34,11.51 L21.51,14.34 L23.11,15.94 C22.7286046,16.5819817 22.4422937,17.2758647 22.26,18 L20,18 L20,18 Z M30,14 C33.3137085,14 36,16.6862915 36,20 C36,23.3137085 33.3137085,26 30,26 C26.6862915,26 24,23.3137085 24,20 C24,16.6862915 26.6862915,14 30,14 L30,14 Z M30,17 C31.6568542,17 33,18.3431458 33,20 C33,21.6568542 31.6568542,23 30,23 C28.3431458,23 27,21.6568542 27,20 C27,18.3431458 28.3431458,17 30,17 L30,17 Z M30,21 C30.5522847,21 31,20.5522847 31,20 C31,19.4477153 30.5522847,19 30,19 C29.4477153,19 29,19.4477153 29,20 C29,20.5522847 29.4477153,21 30,21 L30,21 Z" id="Shape_11_copy_8-Copy-2" fill="#FFFFFF"></path>
            </g>
        </g>
    </g>
</svg>
